assets/img/facebook.svg

<svg width="96" height="96" fill="none" xmlns="http://www.w3.org/2000/svg"><g clip-path="url(#a)"><path d="M88 48C88 25.92 70.08 8 48 8S8 25.92 8 48c0 19.36 13.76 35.48 32 39.2V60h-8V48h8V38c0-7.72 6.28-14 14-14h10v12h-8c-2.2 0-4 1.8-4 4v8h12v12H52v27.8c20.2-2 36-19.04 36-39.8Z" fill="#000"/></g><defs><clipPath id="a"><path fill="#fff" d="M0 0h96v96H0z"/></clipPath></defs></svg>

<svg width="96" height="96" viewBox="0 0 96 96" fill="none" xmlns="http://www.w3.org/2000/svg">
<g clip-path="url(#clip0_346_2)">
<path d="M88 48C88 25.92 70.08 8 48 8C25.92 8 8 25.92 8 48C8 67.36 21.76 83.48 40 87.2V60H32V48H40V38C40 30.28 46.28 24 54 24H64V36H56C53.8 36 52 37.8 52 40V48H64V60H52V87.8C72.2 85.8 88 68.76 88 48Z" fill="black"/>
</g>
<defs>
<clipPath id="clip0_346_2">
<rect width="96" height="96" fill="white"/>
</clipPath>
</defs>
</svg>
